X: 37
T:Idbury Hill - Field Town
S:OY(AB)2 (AC)2
N:Tune as played for Grand Union Morris
M:4/4
L:1/8
Q:140
K:D
"A"B2 Bc d2 B2 | AGFE D2 EF | G2 B2 BAGF | E4 E4 | B2 Bc d2 B2 | AGFE D2
 EF | G2 B2 BAGF | E4 E4 ||
"B" B2 Bc d2 B2 | edcB A2 A2 | B2 Bc d2 B2 | e3 d B4 |  B2 Bc d2 B2 | AG
FE D2 EF | G2 B2 BAGF | E4 E4 :||
"C" B4 B2 c2 | d4 B4 | e2 d2 c2 B2 | A4 A4 | B2 Bc d2 B2 | e3 d B4 |   B
2 Bc d2 B2 | AG
FE D2 EF | G2 B2 BAGF | E4 E4 :||
